icons/holyc-filled.svg

<svg width="256" height="256" viewBox="0 0 256 256" fill="none" xmlns="http://www.w3.org/2000/svg">
<g clip-path="url(#clip0_489_23)">
<path d="M196 0H60C26.8629 0 0 26.8629 0 60V196C0 229.137 26.8629 256 60 256H196C229.137 256 256 229.137 256 196V60C256 26.8629 229.137 0 196 0Z" fill="#D6AF46"/>
<path d="M122.001 33C157.144 33 187.828 52.0863 204.262 80.4561L204.102 80.183L162.753 103.991C154.607 90.1977 139.672 80.8892 122.54 80.6975L122.001 80.6945C95.875 80.6945 74.6945 101.874 74.6945 127.999C74.6945 136.543 76.9723 144.552 80.9335 151.469C89.0876 165.704 104.416 175.306 122.001 175.306C139.693 175.306 155.109 165.582 163.222 151.195L163.025 151.54L204.311 175.458C188.057 203.588 157.794 222.615 123.059 222.994L122.001 223C86.746 223 55.9753 203.796 39.582 175.276C31.5791 161.353 27 145.212 27 127.999C27 75.5334 69.5323 33 122.001 33Z" fill="white"/>
<path d="M221 112.333H209.666V101H198.334V112.333H187V123.666H198.334V155H209.666V123.666H221V112.333Z" fill="white"/>
</g>
<defs>
<clipPath id="clip0_489_23">
<rect width="256" height="256" fill="white"/>
</clipPath>
</defs>
</svg>

<svg xmlns="http://www.w3.org/2000/svg" width="256" height="256" fill="none"><g clip-path="url(#clip0_489_23)"><path fill="#D6AF46" d="M196 0H60C26.863 0 0 26.863 0 60v136c0 33.137 26.863 60 60 60h136c33.137 0 60-26.863 60-60V60c0-33.137-26.863-60-60-60"/><path fill="#fff" d="M122.001 33c35.143 0 65.827 19.086 82.261 47.456l-.16-.273-41.349 23.808c-8.146-13.793-23.081-23.102-40.213-23.293l-.539-.003c-26.126 0-47.306 21.179-47.306 47.304a47.1 47.1 0 0 0 6.239 23.47c8.154 14.235 23.482 23.837 41.067 23.837 17.692 0 33.108-9.724 41.221-24.111l-.197.345 41.286 23.918c-16.254 28.13-46.517 47.157-81.252 47.536l-1.058.006c-35.255 0-66.026-19.204-82.419-47.724C31.579 161.353 27 145.212 27 127.999 27 75.533 69.532 33 122.001 33"/><path fill="#fff" d="M221 112.333h-11.334V101h-11.332v11.333H187v11.333h11.334V155h11.332v-31.334H221z"/></g><defs><clipPath id="clip0_489_23"><path fill="#fff" d="M0 0h256v256H0z"/></clipPath></defs></svg>
